public/location.svg

<svg width="70" height="70" viewBox="0 0 70 70" fill="none" xmlns="http://www.w3.org/2000/svg">
<path d="M60 0H10C4.47715 0 0 4.47715 0 10V60C0 65.5229 4.47715 70 10 70H60C65.5229 70 70 65.5229 70 60V10C70 4.47715 65.5229 0 60 0Z" fill="#F3FCF7"/>
<path fill-rule="evenodd" clip-rule="evenodd" d="M34.8655 37.1428C37.2328 37.1428 39.154 35.2228 39.154 32.8571C39.154 30.4914 37.2328 28.5714 34.8655 28.5714C32.4983 28.5714 30.577 30.4914 30.577 32.8571C30.577 35.2228 32.4983 37.1428 34.8655 37.1428Z" fill="#3A76BF"/>
<path fill-rule="evenodd" clip-rule="evenodd" d="M47.7311 32.8571C47.7311 43.5714 37.0098 50 34.8655 50C32.7213 50 22 43.5714 22 32.8571C22 25.7578 27.7616 20 34.8655 20C41.9694 20 47.7311 25.7578 47.7311 32.8571Z" fill="#3A76BF"/>
<path fill-rule="evenodd" clip-rule="evenodd" d="M34.8655 37.1428C37.2328 37.1428 39.154 35.2228 39.154 32.8571C39.154 30.4914 37.2328 28.5714 34.8655 28.5714C32.4983 28.5714 30.577 30.4914 30.577 32.8571C30.577 35.2228 32.4983 37.1428 34.8655 37.1428Z" stroke="#F3FCF7" stroke-width="2" stroke-linecap="square"/>
<path fill-rule="evenodd" clip-rule="evenodd" d="M47.7311 32.8571C47.7311 43.5714 37.0098 50 34.8655 50C32.7213 50 22 43.5714 22 32.8571C22 25.7578 27.7616 20 34.8655 20C41.9694 20 47.7311 25.7578 47.7311 32.8571Z" stroke="#F3FCF7" stroke-width="2" stroke-linecap="square"/>
</svg>

<svg width="70" height="70" fill="none" xmlns="http://www.w3.org/2000/svg"><path d="M60 0H10C4.477 0 0 4.477 0 10v50c0 5.523 4.477 10 10 10h50c5.523 0 10-4.477 10-10V10c0-5.523-4.477-10-10-10z" fill="#F3FCF7"/><path fill-rule="evenodd" clip-rule="evenodd" d="M34.865 37.143a4.289 4.289 0 0 0 4.289-4.286 4.289 4.289 0 0 0-8.577 0 4.289 4.289 0 0 0 4.288 4.286z" fill="#3A76BF"/><path fill-rule="evenodd" clip-rule="evenodd" d="M47.731 32.857C47.731 43.571 37.01 50 34.865 50 32.721 50 22 43.571 22 32.857 22 25.757 27.762 20 34.865 20c7.104 0 12.866 5.758 12.866 12.857z" fill="#3A76BF"/><path clip-rule="evenodd" d="M34.865 37.143a4.289 4.289 0 0 0 4.289-4.286 4.289 4.289 0 0 0-8.577 0 4.289 4.289 0 0 0 4.288 4.286z" stroke="#F3FCF7" stroke-width="2" stroke-linecap="square"/><path clip-rule="evenodd" d="M47.731 32.857C47.731 43.571 37.01 50 34.865 50 32.721 50 22 43.571 22 32.857 22 25.757 27.762 20 34.865 20c7.104 0 12.866 5.758 12.866 12.857z" stroke="#F3FCF7" stroke-width="2" stroke-linecap="square"/></svg>
